public/img/decorations/deco-ring-3.svg

<svg width="183" height="169" viewBox="0 0 183 169" fill="none" xmlns="http://www.w3.org/2000/svg">
<path d="M0.541185 59.96C0.541185 57.603 0.621179 55.242 0.525179 52.889C0.304179 47.457 0.990188 42.098 1.86919 36.774C2.96319 30.139 6.05518 24.357 10.0192 19.003C13.1442 14.785 16.7922 11.028 21.0932 8.09097C26.8292 4.17397 33.1592 1.34798 40.2222 1.13498C44.6152 1.00198 49.0272 1.62397 53.4332 1.86297C60.4172 2.24297 67.1772 4.00798 74.0332 5.16998C79.0492 6.01998 83.9862 5.67398 88.9722 4.95898C99.7552 3.41198 110.542 1.87497 121.359 0.590969C126.925 -0.0700307 132.529 0.498974 138.103 1.10898C145.382 1.90498 152.341 3.95696 159.156 6.47796C161.888 7.48896 164.482 8.98796 166.961 10.546C168.969 11.81 170.543 13.666 171.234 16.023C172.779 21.293 174.379 26.553 175.703 31.88C177.527 39.214 179.162 46.596 180.787 53.978C181.459 57.035 182.199 60.125 182.385 63.231C182.881 71.558 183.307 79.915 181.108 88.116C179.903 92.602 177.965 96.675 175.321 100.568C172.438 104.809 169.604 109.029 165.8 112.483C160.347 117.433 154.792 122.27 148.273 125.82C146.554 126.756 144.755 127.545 142.996 128.405C135.328 132.155 127.726 136.049 119.976 139.617C112.04 143.271 103.925 146.528 95.9552 150.107C89.7772 152.88 83.7252 155.933 77.5742 158.769C67.7892 163.28 57.6172 166.328 46.8262 167.413C40.8342 168.016 34.8922 168.443 28.9672 167.305C23.5962 166.273 19.2442 163.624 15.6942 159.26C10.2272 152.54 7.75618 144.656 5.90518 136.484C3.86018 127.461 3.08318 118.281 2.83118 109.037C2.67918 103.453 2.17318 97.88 1.82918 92.302C1.78618 91.616 1.73118 90.928 1.74718 90.242C1.86418 84.829 1.20618 79.475 0.739183 74.096C0.333183 69.417 0.655184 64.677 0.655184 59.963C0.615184 59.96 0.578185 59.96 0.541185 59.96ZM4.51018 98.377C4.32218 98.39 4.13318 98.403 3.94618 98.417C4.19218 102.328 4.42819 106.24 4.68819 110.15C4.87019 112.889 5.16819 115.623 5.27019 118.365C5.61419 127.759 7.58118 136.831 10.4952 145.732C11.9172 150.076 14.2372 153.948 16.8822 157.605C18.6052 159.988 20.8042 161.903 23.4542 163.388C27.9312 165.9 32.8522 166.373 37.7022 166.373C42.6732 166.373 47.6652 165.548 52.6062 164.814C61.6202 163.475 70.0422 160.185 78.2802 156.443C82.7412 154.417 87.0122 151.972 91.4832 149.974C98.4692 146.851 105.628 144.108 112.577 140.907C120.681 137.173 128.634 133.109 136.659 129.205C140.276 127.446 144.054 125.966 147.509 123.936C154.734 119.692 161.259 114.473 166.935 108.303C170.187 104.771 173.257 101.01 174.103 96.008C174.201 95.437 174.374 94.82 174.703 94.359C175.193 93.667 175.742 92.791 176.461 92.529C178.109 91.927 178.545 90.653 179.023 89.214C180.185 85.718 180.414 82.075 180.578 78.467C180.805 73.475 180.928 68.449 180.619 63.468C180.176 56.3 177.974 49.42 176.51 42.421C175.787 38.965 174.842 35.555 173.959 32.134C172.908 28.054 171.77 23.995 170.754 19.905C169.654 15.465 166.795 12.628 162.856 10.557C159.618 8.85597 156.272 7.55796 152.731 6.66296C149.784 5.91896 146.942 4.69797 143.967 4.14697C136.34 2.73597 128.68 1.68797 120.863 2.70297C112.988 3.72497 105.041 4.23697 97.1972 5.44497C90.5112 6.47397 83.8532 7.60496 77.0932 8.01196C76.7102 8.03396 76.3102 8.02798 75.9392 7.94098C73.5582 7.38098 71.1892 6.77495 68.8062 6.22195C59.9842 4.17895 50.9972 3.53496 41.9862 3.28296C38.9682 3.19796 35.9312 3.38995 32.9612 4.32995C21.5392 7.94395 13.4572 15.613 7.82619 25.782C2.89219 34.693 1.94119 44.588 2.62319 54.654C2.72819 56.209 2.65818 57.775 2.64418 59.336C2.60518 63.749 2.30618 68.176 2.55818 72.571C3.04718 81.184 3.84218 89.776 4.51018 98.377Z" fill="black"/>
</svg>

<svg width="183" height="169" fill="none" xmlns="http://www.w3.org/2000/svg"><path d="M.541 59.96c0-2.357.08-4.718-.016-7.071-.22-5.432.465-10.791 1.344-16.115 1.094-6.635 4.186-12.417 8.15-17.771 3.125-4.218 6.773-7.975 11.074-10.912 5.736-3.917 12.066-6.743 19.13-6.956 4.392-.133 8.804.489 13.21.728 6.984.38 13.744 2.145 20.6 3.307 5.016.85 9.953.504 14.94-.211 10.782-1.547 21.569-3.084 32.386-4.368 5.566-.661 11.17-.092 16.744.518 7.279.796 14.238 2.848 21.053 5.369 2.732 1.011 5.326 2.51 7.805 4.068 2.008 1.264 3.582 3.12 4.273 5.477 1.545 5.27 3.145 10.53 4.469 15.857 1.824 7.334 3.459 14.716 5.084 22.098.672 3.057 1.412 6.147 1.598 9.253.496 8.327.922 16.684-1.277 24.885-1.205 4.486-3.143 8.559-5.787 12.452-2.883 4.241-5.717 8.461-9.521 11.915-5.453 4.95-11.008 9.787-17.527 13.337-1.719.936-3.518 1.725-5.277 2.585-7.668 3.75-15.27 7.644-23.02 11.212-7.936 3.654-16.051 6.911-24.02 10.49-6.179 2.773-12.23 5.826-18.382 8.662-9.785 4.511-19.957 7.559-30.748 8.644-5.992.603-11.934 1.03-17.859-.108-5.37-1.032-9.723-3.681-13.273-8.045-5.467-6.72-7.938-14.604-9.789-22.776-2.045-9.023-2.822-18.203-3.074-27.447-.152-5.584-.658-11.157-1.002-16.735-.043-.686-.098-1.374-.082-2.06.117-5.413-.54-10.767-1.008-16.146-.406-4.679-.084-9.419-.084-14.133-.04-.003-.077-.003-.114-.003zm3.97 38.417l-.565.04c.246 3.911.482 7.823.742 11.733.182 2.739.48 5.473.582 8.215.344 9.394 2.311 18.466 5.225 27.367 1.422 4.344 3.742 8.216 6.387 11.873 1.723 2.383 3.922 4.298 6.572 5.783 4.477 2.512 9.398 2.985 14.248 2.985 4.971 0 9.963-.825 14.904-1.559 9.014-1.339 17.436-4.629 25.674-8.371 4.461-2.026 8.732-4.471 13.203-6.469 6.986-3.123 14.145-5.866 21.094-9.067 8.104-3.734 16.057-7.798 24.082-11.702 3.617-1.759 7.395-3.239 10.85-5.269 7.225-4.244 13.75-9.463 19.426-15.633 3.252-3.532 6.322-7.293 7.168-12.295.098-.571.271-1.188.6-1.649.49-.692 1.039-1.568 1.758-1.83 1.648-.602 2.084-1.876 2.562-3.315 1.162-3.496 1.391-7.139 1.555-10.747.227-4.992.35-10.018.041-14.999-.443-7.168-2.645-14.048-4.109-21.047-.723-3.456-1.668-6.866-2.551-10.287-1.051-4.08-2.189-8.139-3.205-12.229-1.1-4.44-3.959-7.277-7.898-9.348a45.717 45.717 0 00-10.125-3.894c-2.947-.744-5.789-1.965-8.764-2.516-7.627-1.411-15.287-2.459-23.104-1.444-7.875 1.022-15.822 1.534-23.666 2.742-6.686 1.029-13.344 2.16-20.104 2.567-.383.022-.783.016-1.154-.071-2.38-.56-4.75-1.166-7.133-1.72-8.822-2.042-17.809-2.686-26.82-2.938-3.018-.085-6.055.107-9.025 1.047C21.54 7.944 13.457 15.613 7.826 25.782c-4.934 8.911-5.885 18.806-5.203 28.872.105 1.555.035 3.121.021 4.682-.039 4.413-.338 8.84-.086 13.235.49 8.613 1.284 17.205 1.952 25.806z" fill="#000"/></svg>
